icons/file-damage-line.svg

<svg viewBox="0 0 24 24" fill="currentColor" xmlns="http://www.w3.org/2000/svg">
    <path d="M19 9H14V4H5V11.8571L6.5 13.25L10 9.5L13 14.5L15 12L18 15L15 14.5L13 17L10 13L7 16.5L5 15.25V20H19V9ZM21 8V20.9932C21 21.5501 20.5552 22 20.0066 22H3.9934C3.44495 22 3 21.556 3 21.0082V2.9918C3 2.45531 3.4487 2 4.00221 2H14.9968L21 8Z"/>
</svg>

<svg xmlns="http://www.w3.org/2000/svg" viewBox="0 0 24 24">
    <g>
        <path fill="none" d="M0 0h24v24H0z"/>
        <path fill-rule="nonzero" d="M19 9h-5V4H5v7.857l1.5 1.393L10 9.5l3 5 2-2.5 3 3-3-.5-2 2.5-3-4-3 3.5-2-1.25V20h14V9zm2-1v12.993A1 1 0 0 1 20.007 22H3.993A.993.993 0 0 1 3 21.008V2.992C3 2.455 3.449 2 4.002 2h10.995L21 8z"/>
    </g>
</svg>
